X:156
T:Joe Bane's
T:Bill Malley's
R:polka
Z:id:hn-polka-156
M:2/4
L:1/8
K:Ador
A>A GE | cd e>d | c/B/A BG | AG E/F/G | 
A>A GE | cd e>d | c/B/A BG |1 A2 AE :|2 A2 A2 ||
|: ea e>d | ea e>d | cd ef | g2 fg |
ea e>d | ea e>d | c/B/A BG |1 A2 A2 :|2 A2 AE || 

